apps/scalable/thunar.svg

<svg xmlns="http://www.w3.org/2000/svg" style="isolation:isolate" width="256" height="256"><defs><filter id="a" width="270.648" height="254.338" x="-7.32" y="2.95" filterUnits="userSpaceOnUse"><feGaussianBlur xmlns="http://www.w3.org/2000/svg" in="SourceGraphic" stdDeviation="4.294"/><feOffset xmlns="http://www.w3.org/2000/svg" dy="4" result="pf_100_offsetBlur"/><feFlood xmlns="http://www.w3.org/2000/svg" flood-opacity=".4"/><feComposite xmlns="http://www.w3.org/2000/svg" in2="pf_100_offsetBlur" operator="in" result="pf_100_dropShadow"/><feBlend xmlns="http://www.w3.org/2000/svg" in="SourceGraphic" in2="pf_100_dropShadow"/></filter></defs><g filter="url(#a)"><linearGradient id="b" x1=".233" x2=".937" y1="-.071" y2=".993" gradientTransform="matrix(244.648 0 0 228.338 5.676 11.947)" gradientUnits="userSpaceOnUse"><stop offset="0%" stop-color="#c4669a"/><stop offset="100%" stop-color="#e681b8"/></linearGradient><path fill="url(#b)" d="M165.685 11.947c74.055 0 84.639 10.557 84.639 84.544v59.251c0 73.986-10.584 84.543-84.639 84.543h-75.37c-74.055 0-84.639-10.557-84.639-84.543V96.491c0-73.987 10.584-84.544 84.639-84.544h75.37z"/></g><path fill="#F7F7F7" d="M183.349 12.213c58.127 2.008 66.975 16.628 66.975 84.278v59.251c0 73.986-10.584 84.543-84.639 84.543h-75.37c-61.096 0-78.991-7.185-83.383-51.245 4.973-6.112 176.887-173.772 176.417-176.827z" opacity=".1"/><g opacity=".4"><linearGradient id="c" x1=".517" x2=".517" y2="1"><stop offset="0%" stop-color="#fff"/><stop offset="12.5%" stop-opacity=".098" stop-color="#fff"/><stop offset="92.5%" stop-opacity=".098"/><stop offset="100%" stop-opacity=".498"/></linearGradient><path fill="none" stroke="url(#c)" stroke-linecap="round" stroke-linejoin="round" stroke-width="4.077" d="M165.685 11.947c74.055 0 84.639 10.557 84.639 84.544v59.251c0 73.986-10.584 84.543-84.639 84.543h-75.37c-74.055 0-84.639-10.557-84.639-84.543V96.491c0-73.987 10.584-84.544 84.639-84.544h75.37z" vector-effect="non-scaling-stroke"/></g><g filter="url(#d)"><path fill="#E3D5DD" d="M91.697 61.745c-11.35.13-19.655-.257-26.446 3.473-3.395 1.866-6.09 5.008-7.576 8.948-1.485 3.941-2.008 8.62-2.008 14.528v37.728H200v-23.356c0-5.907-.523-10.587-2.009-14.527-.184-.49-.432-.934-.669-1.386-.09-.166-.161-.342-.247-.509-1.558-3.043-3.838-5.52-6.66-7.07-6.791-3.731-15.096-3.326-26.446-3.457h-36.435l-14.627-14.372h-21.21z"/><clipPath id="e"><path fill="#FFF" d="M91.697 61.745c-11.35.13-19.655-.257-26.446 3.474-3.395 1.865-6.09 5.007-7.576 8.947-1.485 3.941-2.008 8.62-2.008 14.528v37.728H200v-23.356c0-5.907-.523-10.587-2.009-14.527-.184-.49-.432-.934-.669-1.386-.09-.166-.161-.342-.247-.509-1.558-3.043-3.838-5.52-6.66-7.07-6.791-3.731-15.096-3.326-26.445-3.457h-36.436l-14.627-14.372h-21.21z"/></clipPath><g clip-path="url(#e)"><defs><filter id="f" width="185.041" height="155.69" x="35.31" y="55.76" filterUnits="userSpaceOnUse"><feGaussianBlur xmlns="http://www.w3.org/2000/svg" stdDeviation="1.44"/></filter></defs><path d="M163.97 76.117c11.349.13 19.654-.257 26.445 3.474 3.396 1.866 6.091 5.008 7.576 8.948 1.486 3.94 2.009 8.62 2.009 14.527v61.085c0 5.907-.523 10.587-2.009 14.527-1.485 3.94-4.18 7.1-7.576 8.965-6.791 3.731-15.096 3.326-26.445 3.457H91.695c-11.35-.131-19.655.274-26.446-3.457-3.396-1.865-6.091-5.025-7.576-8.965-1.483-3.94-2.006-8.62-2.006-14.527v-46.712c0-5.907.523-10.587 2.008-14.527.185-.49.433-.934.67-1.386.09-.166.16-.342.246-.509 1.558-3.043 3.838-5.52 6.66-7.071 6.791-3.731 15.096-3.325 26.446-3.456H113.7l14.627-14.373h35.643z" opacity=".2" filter="url(#f)"/></g><path fill="#FCF0F7" fill-opacity=".996" d="M163.97 76.117c11.349.13 19.654-.257 26.445 3.474 3.396 1.866 6.091 5.008 7.576 8.948 1.486 3.94 2.009 8.62 2.009 14.527v61.085c0 5.907-.523 10.587-2.009 14.527-1.485 3.94-4.18 7.1-7.576 8.965-6.791 3.731-15.096 3.326-26.445 3.457H91.695c-11.35-.131-19.655.274-26.446-3.457-3.396-1.865-6.091-5.025-7.576-8.965-1.483-3.94-2.006-8.62-2.006-14.527v-46.712c0-5.907.523-10.587 2.008-14.527.185-.49.432-.934.67-1.386.09-.166.16-.342.246-.509 1.558-3.043 3.838-5.52 6.66-7.071 6.791-3.731 15.096-3.325 26.446-3.456H113.699l14.627-14.373h35.644z"/><path fill="#FFF" d="M91.697 61.745c-11.35.13-19.655-.257-26.446 3.473-3.395 1.866-6.09 5.008-7.576 8.948-1.485 3.941-2.008 8.62-2.008 14.528v1.796c0-5.907.523-10.587 2.008-14.527 1.486-3.94 4.181-7.082 7.576-8.948 6.791-3.731 15.096-3.344 26.446-3.474h21.209l14.109 13.864 1.311-1.288h-.793l-14.627-14.372H91.697z" opacity=".4"/><path fill="#FFF" d="M128.327 76.117L113.7 90.49H91.697c-11.35.131-19.654-.275-26.446 3.457-2.821 1.55-5.102 4.027-6.659 7.07-.086.167-.157.343-.247.509-.238.452-.485.896-.67 1.386-1.485 3.94-2.008 8.62-2.008 14.527v1.797c0-5.907.523-10.587 2.008-14.527.185-.49.432-.935.67-1.386.09-.166.161-.342.247-.509 1.557-3.043 3.838-5.521 6.659-7.071 6.792-3.731 15.096-3.326 26.446-3.456H113.7l14.627-14.373h35.642c11.35.13 19.655-.257 26.446 3.474 3.395 1.865 6.091 5.008 7.576 8.948 1.485 3.94 2.008 8.62 2.008 14.527v-1.797c0-5.907-.523-10.587-2.008-14.527-1.485-3.94-4.181-7.082-7.576-8.948-6.791-3.731-15.096-3.343-26.446-3.474h-35.642z"/></g><defs><filter id="d" width="204.333" height="189.355" x="25.67" y="35.74" filterUnits="userSpaceOnUse"><feGaussianBlur xmlns="http://www.w3.org/2000/svg" in="SourceGraphic" stdDeviation="4.294"/><feOffset xmlns="http://www.w3.org/2000/svg" dy="4" result="pf_100_offsetBlur"/><feFlood xmlns="http://www.w3.org/2000/svg" flood-opacity=".4"/><feComposite xmlns="http://www.w3.org/2000/svg" in2="pf_100_offsetBlur" operator="in" result="pf_100_dropShadow"/><feBlend xmlns="http://www.w3.org/2000/svg" in="SourceGraphic" in2="pf_100_dropShadow"/></filter></defs><g fill="#8E2D63"><path d="M97.433 168.399l-3.87-.416a36.997 36.997 0 0 1 12.096-23.629 37.185 37.185 0 0 1 11.315-6.972 37.123 37.123 0 0 1 13.474-2.525 37.109 37.109 0 0 1 13.472 2.525 37.197 37.197 0 0 1 19.456 17.476 37.042 37.042 0 0 1 3.957 13.125l-3.872.416a33.164 33.164 0 0 0-3.538-11.746 33.235 33.235 0 0 0-7.289-9.401 33.23 33.23 0 0 0-10.128-6.241 33.19 33.19 0 0 0-12.058-2.261 33.192 33.192 0 0 0-12.06 2.261 33.218 33.218 0 0 0-10.128 6.241 33.235 33.235 0 0 0-7.289 9.401 33.143 33.143 0 0 0-3.538 11.746z"/><path d="M141.772 134.054a33.206 33.206 0 0 0-13.619-26.815l2.298-3.142a37.09 37.09 0 0 1 15.215 29.954 37.082 37.082 0 0 1-2.919 14.44 37.189 37.189 0 0 1-7.952 11.793 37.2 37.2 0 0 1-11.792 7.952 37.064 37.064 0 0 1-14.438 2.918 37.105 37.105 0 0 1-15.002-3.168l1.574-3.562a33.15 33.15 0 0 0 13.428 2.834 33.065 33.065 0 0 0 12.922-2.61 33.329 33.329 0 0 0 17.676-17.675 33.176 33.176 0 0 0 2.609-12.919zM145.666 134.051v.003-.003z"/><path d="M165.759 164.424l1.574 3.562a37.094 37.094 0 0 1-14.999 3.168 37.074 37.074 0 0 1-14.44-2.918 37.238 37.238 0 0 1-19.745-19.745 37.074 37.074 0 0 1-2.918-14.44 37.077 37.077 0 0 1 4.024-16.797 37.05 37.05 0 0 1 11.193-13.157l2.296 3.142a33.235 33.235 0 0 0-10.018 11.778 33.18 33.18 0 0 0-3.599 15.037 33.069 33.069 0 0 0 2.61 12.919 33.199 33.199 0 0 0 7.12 10.556 33.201 33.201 0 0 0 10.556 7.119 33.046 33.046 0 0 0 12.918 2.61 33.122 33.122 0 0 0 13.428-2.834z"/></g></svg>

<svg xmlns="http://www.w3.org/2000/svg" style="isolation:isolate" width="256" height="256" viewBox="0 0 256 256">
 <defs>
  <filter id="ktJs1KQArpgoY8z3otXwyTBFu4boQEdZ" width="270.648" height="254.338" x="-7.32" y="2.95" filterUnits="userSpaceOnUse">
   <feGaussianBlur xmlns="http://www.w3.org/2000/svg" in="SourceGraphic" stdDeviation="4.294"/>
   <feOffset xmlns="http://www.w3.org/2000/svg" dx="0" dy="4" result="pf_100_offsetBlur"/>
   <feFlood xmlns="http://www.w3.org/2000/svg" flood-opacity=".4"/>
   <feComposite xmlns="http://www.w3.org/2000/svg" in2="pf_100_offsetBlur" operator="in" result="pf_100_dropShadow"/>
   <feBlend xmlns="http://www.w3.org/2000/svg" in="SourceGraphic" in2="pf_100_dropShadow" mode="normal"/>
  </filter>
 </defs>
 <g filter="url(#ktJs1KQArpgoY8z3otXwyTBFu4boQEdZ)">
  <linearGradient id="_lgradient_144" x1=".233" x2=".937" y1="-.071" y2=".993" gradientTransform="matrix(244.648,0,0,228.338,5.676,11.947)" gradientUnits="userSpaceOnUse">
   <stop offset="0%" style="stop-color:rgb(196,102,154)"/>
   <stop offset="100%" style="stop-color:rgb(230,129,184)"/>
  </linearGradient>
  <path fill="url(#_lgradient_144)" d="M 165.685 11.947 C 239.74 11.947 250.324 22.504 250.324 96.491 L 250.324 155.742 C 250.324 229.728 239.74 240.285 165.685 240.285 L 90.315 240.285 C 16.26 240.285 5.676 229.728 5.676 155.742 L 5.676 96.491 C 5.676 22.504 16.26 11.947 90.315 11.947 L 165.685 11.947 Z"/>
 </g>
 <g opacity=".1">
  <path fill="#F7F7F7" d="M 183.349 12.213 C 241.476 14.221 250.324 28.841 250.324 96.491 L 250.324 155.742 C 250.324 229.728 239.74 240.285 165.685 240.285 L 90.315 240.285 C 29.219 240.285 11.324 233.1 6.932 189.04 C 11.905 182.928 183.819 15.268 183.349 12.213 Z"/>
 </g>
 <g opacity=".4">
  <linearGradient id="_lgradient_145" x1=".517" x2=".517" y1="0" y2="1">
   <stop offset="0%" style="stop-color:rgb(255,255,255)"/>
   <stop offset="12.5%" stop-opacity=".098" style="stop-color:rgb(255,255,255)"/>
   <stop offset="92.5%" stop-opacity=".098" style="stop-color:rgb(0,0,0)"/>
   <stop offset="100%" stop-opacity=".498" style="stop-color:rgb(0,0,0)"/>
  </linearGradient>
  <path fill="none" stroke="url(#_lgradient_145)" stroke-linecap="round" stroke-linejoin="round" stroke-width="4.077" d="M 165.685 11.947 C 239.74 11.947 250.324 22.504 250.324 96.491 L 250.324 155.742 C 250.324 229.728 239.74 240.285 165.685 240.285 L 90.315 240.285 C 16.26 240.285 5.676 229.728 5.676 155.742 L 5.676 96.491 C 5.676 22.504 16.26 11.947 90.315 11.947 L 165.685 11.947 Z" vector-effect="non-scaling-stroke"/>
 </g>
 <g filter="url(#syoGKKtyEHZIhUScq8DaXOwXOuNoHKv8)">
  <path fill="#E3D5DD" d="M 91.697 61.745 C 80.347 61.875 72.042 61.488 65.251 65.218 C 61.856 67.084 59.161 70.226 57.675 74.166 C 56.19 78.107 55.667 82.786 55.667 88.694 L 55.667 126.422 L 200 126.422 L 200 103.066 C 200 97.159 199.477 92.479 197.991 88.539 C 197.807 88.049 197.559 87.605 197.322 87.153 C 197.232 86.987 197.161 86.811 197.075 86.644 C 195.517 83.601 193.237 81.124 190.415 79.574 C 183.624 75.843 175.319 76.248 163.969 76.117 L 163.917 76.117 L 127.534 76.117 L 112.907 61.745 L 91.715 61.745 L 91.697 61.745 Z"/>
  <clipPath id="_clipPath_34szHwAOq4qTmF5cRO6mP3iocyo8MgrX">
   <path fill="#FFFFFF" d="M 91.697 61.745 C 80.347 61.875 72.042 61.488 65.251 65.219 C 61.856 67.084 59.161 70.226 57.675 74.166 C 56.19 78.107 55.667 82.786 55.667 88.694 L 55.667 126.422 L 200 126.422 L 200 103.066 C 200 97.159 199.477 92.479 197.991 88.539 C 197.807 88.049 197.559 87.605 197.322 87.153 C 197.232 86.987 197.161 86.811 197.075 86.644 C 195.517 83.601 193.237 81.124 190.415 79.574 C 183.624 75.843 175.319 76.248 163.97 76.117 L 163.917 76.117 L 127.534 76.117 L 112.907 61.745 L 91.715 61.745 L 91.697 61.745 Z"/>
  </clipPath>
  <g clip-path="url(#_clipPath_34szHwAOq4qTmF5cRO6mP3iocyo8MgrX)">
   <defs>
    <filter id="ETiJ5ua68zAULiQ4hpRXfNfVxISg9x9C" width="185.041" height="155.69" x="35.31" y="55.76" filterUnits="userSpaceOnUse">
     <feGaussianBlur xmlns="http://www.w3.org/2000/svg" stdDeviation="1.44"/>
    </filter>
   </defs>
   <g opacity=".2" filter="url(#ETiJ5ua68zAULiQ4hpRXfNfVxISg9x9C)">
    <path d="M 163.97 76.117 C 175.319 76.247 183.624 75.86 190.415 79.591 C 193.811 81.457 196.506 84.599 197.991 88.539 C 199.477 92.479 200 97.159 200 103.066 L 200 164.151 C 200 170.058 199.477 174.738 197.991 178.678 C 196.506 182.618 193.811 185.778 190.415 187.643 C 183.624 191.374 175.319 190.969 163.97 191.1 L 163.915 191.1 L 91.749 191.1 L 91.695 191.1 C 80.345 190.969 72.04 191.374 65.249 187.643 C 61.853 185.778 59.158 182.618 57.673 178.678 C 56.19 174.738 55.667 170.058 55.667 164.151 L 55.667 158.761 L 55.667 117.439 C 55.667 111.532 56.19 106.852 57.675 102.912 C 57.86 102.422 58.108 101.978 58.345 101.526 C 58.435 101.36 58.505 101.184 58.591 101.017 C 60.149 97.974 62.429 95.497 65.251 93.946 C 72.042 90.215 80.347 90.621 91.697 90.49 L 91.75 90.49 L 113.7 90.49 L 128.327 76.117 L 163.952 76.117 L 163.97 76.117 Z"/>
   </g>
  </g>
  <path fill="#FCF0F7" fill-opacity=".996" d="M 163.97 76.117 C 175.319 76.247 183.624 75.86 190.415 79.591 C 193.811 81.457 196.506 84.599 197.991 88.539 C 199.477 92.479 200 97.159 200 103.066 L 200 164.151 C 200 170.058 199.477 174.738 197.991 178.678 C 196.506 182.618 193.811 185.778 190.415 187.643 C 183.624 191.374 175.319 190.969 163.97 191.1 L 163.915 191.1 L 91.749 191.1 L 91.695 191.1 C 80.345 190.969 72.04 191.374 65.249 187.643 C 61.853 185.778 59.158 182.618 57.673 178.678 C 56.19 174.738 55.667 170.058 55.667 164.151 L 55.667 158.761 L 55.667 117.439 C 55.667 111.532 56.19 106.852 57.675 102.912 C 57.86 102.422 58.107 101.978 58.345 101.526 C 58.435 101.36 58.505 101.184 58.591 101.017 C 60.149 97.974 62.429 95.497 65.251 93.946 C 72.042 90.215 80.347 90.621 91.697 90.49 L 91.75 90.49 L 113.699 90.49 L 128.326 76.117 L 163.952 76.117 L 163.97 76.117 Z"/>
  <g opacity=".4">
   <path fill="#FFFFFF" d="M 91.697 61.745 C 80.347 61.875 72.042 61.488 65.251 65.218 C 61.856 67.084 59.161 70.226 57.675 74.166 C 56.19 78.107 55.667 82.786 55.667 88.694 L 55.667 90.49 C 55.667 84.583 56.19 79.903 57.675 75.963 C 59.161 72.023 61.856 68.881 65.251 67.015 C 72.042 63.284 80.347 63.671 91.697 63.541 L 91.714 63.541 L 112.906 63.541 L 127.015 77.405 L 128.326 76.117 L 127.533 76.117 L 112.906 61.745 L 91.714 61.745 L 91.697 61.745 Z"/>
  </g>
  <path fill="#FFFFFF" d="M 128.327 76.117 L 113.7 90.49 L 91.75 90.49 L 91.697 90.49 C 80.347 90.621 72.043 90.215 65.251 93.947 C 62.43 95.497 60.149 97.974 58.592 101.017 C 58.506 101.184 58.435 101.36 58.345 101.526 C 58.107 101.978 57.86 102.422 57.675 102.912 C 56.19 106.852 55.667 111.532 55.667 117.439 L 55.667 119.236 C 55.667 113.329 56.19 108.649 57.675 104.709 C 57.86 104.219 58.107 103.774 58.345 103.323 C 58.435 103.157 58.506 102.981 58.592 102.814 C 60.149 99.771 62.43 97.293 65.251 95.743 C 72.043 92.012 80.347 92.417 91.697 92.287 L 91.75 92.287 L 113.7 92.287 L 128.327 77.914 L 163.952 77.914 L 163.969 77.914 C 175.319 78.044 183.624 77.657 190.415 81.388 C 193.81 83.253 196.506 86.396 197.991 90.336 C 199.476 94.276 199.999 98.956 199.999 104.863 L 199.999 103.066 C 199.999 97.159 199.476 92.479 197.991 88.539 C 196.506 84.599 193.81 81.457 190.415 79.591 C 183.624 75.86 175.319 76.248 163.969 76.117 L 163.952 76.117 L 128.327 76.117 Z"/>
 </g>
 <defs>
  <filter id="syoGKKtyEHZIhUScq8DaXOwXOuNoHKv8" width="204.333" height="189.355" x="25.67" y="35.74" filterUnits="userSpaceOnUse">
   <feGaussianBlur xmlns="http://www.w3.org/2000/svg" in="SourceGraphic" stdDeviation="4.294"/>
   <feOffset xmlns="http://www.w3.org/2000/svg" dx="0" dy="4" result="pf_100_offsetBlur"/>
   <feFlood xmlns="http://www.w3.org/2000/svg" flood-opacity=".4"/>
   <feComposite xmlns="http://www.w3.org/2000/svg" in2="pf_100_offsetBlur" operator="in" result="pf_100_dropShadow"/>
   <feBlend xmlns="http://www.w3.org/2000/svg" in="SourceGraphic" in2="pf_100_dropShadow" mode="normal"/>
  </filter>
 </defs>
 <g>
  <path fill="#8E2D63" d="M 97.433 168.399 L 93.563 167.983 C 94.052 163.4 95.393 158.948 97.517 154.858 C 99.577 150.895 102.336 147.336 105.659 144.354 C 108.981 141.369 112.813 139.009 116.974 137.382 C 121.269 135.712 125.84 134.854 130.448 134.857 C 135.057 134.854 139.625 135.712 143.92 137.382 C 148.081 139.009 151.912 141.369 155.235 144.354 C 158.558 147.336 161.316 150.895 163.376 154.858 C 165.5 158.948 166.842 163.4 167.333 167.983 L 163.461 168.399 C 163.021 164.296 161.823 160.313 159.923 156.653 C 158.078 153.106 155.608 149.92 152.634 147.252 C 149.66 144.578 146.23 142.466 142.506 141.011 C 138.662 139.515 134.571 138.747 130.448 138.75 C 126.323 138.747 122.232 139.515 118.388 141.011 C 114.664 142.466 111.233 144.578 108.26 147.252 C 105.286 149.92 102.816 153.106 100.971 156.653 C 99.071 160.313 97.872 164.296 97.433 168.399 Z"/>
  <path fill="#8E2D63" d="M 141.772 134.054 L 141.772 134.054 C 141.772 128.828 140.539 123.675 138.173 119.017 C 135.805 114.356 132.372 110.323 128.153 107.239 L 130.451 104.097 C 135.165 107.539 139 112.049 141.644 117.254 C 144.286 122.459 145.666 128.214 145.666 134.051 C 145.668 139.012 144.676 143.923 142.747 148.491 C 140.882 152.896 138.179 156.9 134.795 160.284 C 131.414 163.668 127.408 166.368 123.003 168.236 C 118.435 170.165 113.523 171.157 108.565 171.154 C 103.398 171.154 98.289 170.075 93.563 167.986 L 95.137 164.424 C 99.368 166.295 103.942 167.261 108.565 167.258 C 113.002 167.264 117.399 166.377 121.487 164.648 C 125.429 162.978 129.014 160.56 132.043 157.531 C 135.072 154.503 137.49 150.918 139.163 146.973 C 140.888 142.885 141.775 138.491 141.772 134.054 C 141.772 134.054 141.772 134.054 141.772 134.054 Z"/>
  <path fill="#8E2D63" d="M 145.666 134.051 C 145.666 134.054 145.666 134.054 145.666 134.054 L 145.666 134.051 C 145.666 134.051 145.666 134.051 145.666 134.051 Z"/>
  <path fill="#8E2D63" d="M 165.759 164.424 L 167.333 167.986 C 162.608 170.075 157.499 171.154 152.334 171.154 C 147.373 171.157 142.465 170.165 137.894 168.236 C 133.489 166.368 129.485 163.668 126.101 160.284 C 122.718 156.9 120.017 152.896 118.149 148.491 C 116.22 143.92 115.228 139.012 115.231 134.051 C 115.231 128.214 116.61 122.459 119.255 117.254 C 121.897 112.049 125.732 107.539 130.448 104.097 L 132.744 107.239 C 128.525 110.323 125.092 114.359 122.726 119.017 C 120.358 123.675 119.127 128.828 119.127 134.054 C 119.121 138.491 120.009 142.885 121.737 146.973 C 123.407 150.918 125.825 154.503 128.857 157.529 C 131.883 160.56 135.467 162.978 139.413 164.648 C 143.501 166.377 147.894 167.264 152.331 167.258 C 156.958 167.261 161.532 166.295 165.759 164.424 Z"/>
 </g>
</svg>
